src/main/resources/icons/AllIcons/javaee/WebServiceClient.svg

<!-- Copyright 2000-2021 JetBrains s.r.o. Use of this source code is governed by the Apache 2.0 license that can be found in the LICENSE file. -->
<svg xmlns="http://www.w3.org/2000/svg" width="16" height="16" viewBox="0 0 16 16">
  <g fill="none" fill-rule="evenodd">
    <path fill="#9AA7B0" fill-opacity=".8" d="M6,14.7097474 C3.1095002,13.8485374 1,11.1691214 1,8 C1,4.136 4.136,1 8,1 C11.864,1 15,4.136 15,8 C15,8.33540551 14.9763712,8.66532575 14.9306884,8.98818582 C14.819635,7.95407916 14.2380149,7.0608427 13.4042215,6.52686956 C12.7574981,4.14874451 10.5829696,2.4 8,2.4 C4.9072054,2.4 2.4,4.9072054 2.4,8 C2.4,10.5667503 4.1268516,12.7301729 6.48214524,13.3918581 C6.18077925,13.7275368 6,14.1108596 6,14.5416667 L6,14.7097474 Z M13.7729097,11.9584873 C13.7551484,11.9537059 13.7373857,11.9489757 13.7196237,11.9442969 C13.7708773,11.9023712 13.8208657,11.8589566 13.8695228,11.8141193 C13.8379008,11.8626613 13.8056931,11.9107873 13.7729097,11.9584873 Z"/>
    <path fill="#9AA7B0" fill-opacity=".8" d="M13.4327035,6.63685933 C13.4324554,6.63667553 13.4322073,6.63649176 13.4319591,6.63630803 C12.994526,4.89641293 11.7396279,3.47892394 10.1,2.813 L10.1,3.1 C10.1,3.87 9.47,4.5 8.7,4.5 L7.3,4.5 L7.3,5.9 C7.3,6.285 6.985,6.6 6.6,6.6 L5.2,6.6 L5.2,8 L8.49908167,8 C8.33861407,8.38479604 8.25,8.80704956 8.25,9.25 C8.25,10.3256011 8.77251034,11.2791633 9.57755025,11.870706 C8.77930629,12.0559719 7.95555211,12.3458562 7.3,12.7398445 L7.3,12.2 C6.53,12.2 5.9,11.57 5.9,10.8 L5.9,10.1 L2.547,6.747 C2.45618789,7.15216173 2.4002314,7.56429459 2.40000072,7.99731203 C2.40145449,4.90734577 4.90969604,2.4 8,2.4 C10.6210913,2.4 12.8234551,4.20374911 13.4327035,6.63685933 Z M6.48234054,13.3916406 C5.47894661,13.1094706 4.58938028,12.5545233 3.89884492,11.8120021 C4.58982227,12.5536947 5.48036252,13.1072402 6.48571605,13.3878892 C6.48458921,13.389139 6.48346404,13.3903894 6.48234054,13.3916406 Z M2.40000063,7.99731203 C2.40000035,7.99791096 2.40000016,7.99850992 2.40000007,7.99910889 Z"/>
    <path fill="#9AA7B0" d="M11.5,11.5 C12.743125,11.5 13.75,10.493125 13.75,9.25 C13.75,8.006875 12.743125,7 11.5,7 C10.256875,7 9.25,8.006875 9.25,9.25 C9.25,10.493125 10.256875,11.5 11.5,11.5 Z"/>
    <path fill="#40B6E0" d="M11.5,12.625 C9.998125,12.625 7,13.37875 7,14.875 L7,16 L16,16 L16,14.875 C16,13.37875 13.001875,12.625 11.5,12.625 Z"/>
  </g>
</svg>

<svg xmlns="http://www.w3.org/2000/svg" width="16" height="16" viewBox="0 0 16 16"><rect id="frame" width="16" height="16" fill="none"/><g fill="none" fill-rule="evenodd"><path fill="#9AA7B0" fill-opacity=".8" d="M6 14.71C3.11 13.849 1 11.17 1 8c0-3.864 3.136-7 7-7a7.003 7.003 0 0 1 6.93 7.988 3.35 3.35 0 0 0-1.526-2.461 5.6 5.6 0 1 0-6.922 6.865c-.301.336-.482.719-.482 1.15v.168zm7.773-2.752l-.053-.014c.05-.042.1-.085.15-.13a7.017 7.017 0 0 1-.097.144z"/><path fill="#9AA7B0" fill-opacity=".8" d="M13.433 6.637h-.001A5.62 5.62 0 0 0 10.1 2.812V3.1c0 .77-.63 1.4-1.4 1.4H7.3v1.4c0 .385-.315.7-.7.7H5.2V8h3.3a3.245 3.245 0 0 0 1.078 3.87c-.799.186-1.622.476-2.278.87v-.54c-.77 0-1.4-.63-1.4-1.4v-.7L2.547 6.747c-.09.405-.147.817-.147 1.25A5.602 5.602 0 0 1 8 2.4a5.605 5.605 0 0 1 5.433 4.237zm-6.95 6.755a5.602 5.602 0 0 1-2.584-1.58 5.592 5.592 0 0 0 2.587 1.576 2.483 2.483 0 0 0-.004.004zM2.4 7.997V8z"/><path fill="#9AA7B0" d="M11.5 11.5a2.25 2.25 0 1 0 .001-4.499A2.25 2.25 0 0 0 11.5 11.5z"/><path fill="#40B6E0" d="M11.5 12.625c-1.502 0-4.5.754-4.5 2.25V16h9v-1.125c0-1.496-2.998-2.25-4.5-2.25z"/></g></svg>
